_inc/systems/logos/auto-quiz.svg

<?xml version="1.0" encoding="utf-8"?>
<svg version="1.1" id="quiz" x="0px" y="0px" viewBox="0 0 200 40" xmlns="http://www.w3.org/2000/svg">
  <path d="M 60.36 25.698 C 60.36 20.598 60.36 15.693 60.36 10.739 C 53.869 10.739 47.423 10.739 40.943 10.739 C 40.943 17.185 40.943 23.609 40.943 30.111 C 43.92 30.111 46.876 30.111 49.813 30.111 C 49.919 30.77 50.015 31.351 50.11 31.965 C 49.947 31.971 49.757 31.993 49.562 31.993 C 46.747 31.993 43.932 31.999 41.116 31.993 C 39.686 31.993 39.044 31.34 39.044 29.898 C 39.044 23.576 39.044 17.252 39.044 10.934 C 39.044 9.494 39.692 8.829 41.116 8.829 C 47.462 8.823 53.808 8.823 60.148 8.829 C 61.521 8.829 62.214 9.522 62.214 10.89 C 62.22 15.023 62.225 19.157 62.203 23.29 C 62.203 23.581 62.041 23.922 61.845 24.15 C 61.438 24.643 60.957 25.083 60.36 25.698 Z" style="fill: rgb(204, 204, 204);"/>
  <path d="M 57.226 31.183 C 58.36 29.932 59.443 28.647 60.616 27.468 C 62.175 25.905 63.784 24.391 65.415 22.911 C 65.951 22.425 66.61 22.051 67.269 21.732 C 67.644 21.548 68.14 21.487 68.56 21.537 C 69.286 21.626 69.576 22.335 69.174 22.95 C 68.956 23.28 68.671 23.576 68.375 23.844 C 63.94 27.888 60.801 32.809 58.572 38.345 C 58.555 38.383 58.544 38.434 58.517 38.467 C 58.276 38.696 58.052 39.071 57.784 39.109 C 57.561 39.143 57.204 38.83 57.042 38.585 C 56.477 37.73 56.047 36.78 55.433 35.97 C 54.271 34.451 53.031 32.993 51.785 31.541 C 51.456 31.155 51.171 30.831 51.388 30.312 C 51.601 29.804 52.009 29.496 52.539 29.564 C 53.237 29.647 53.947 29.787 54.612 30.027 C 55.483 30.334 56.315 30.77 57.226 31.183 Z" style="fill: rgb(204, 204, 204);"/>
  <path d="M 48.886 21.112 C 48.886 20.844 48.875 20.576 48.886 20.308 C 48.914 19.727 49.205 19.352 49.792 19.224 C 50.098 19.157 50.406 19.107 50.702 19.017 C 51.294 18.839 51.741 18.509 51.808 17.828 C 51.863 17.274 51.635 16.856 51.171 16.599 C 50.596 16.286 49.992 16.303 49.467 16.699 C 49.171 16.922 48.948 17.241 48.691 17.526 C 48.177 18.09 47.612 18.263 47.02 18.023 C 46.417 17.777 46.065 17.202 46.166 16.448 C 46.227 16.017 46.361 15.565 46.596 15.208 C 48.305 12.588 53.003 12.75 54.556 15.465 C 55.907 17.833 54.885 20.514 52.283 21.38 C 51.964 21.487 51.836 21.621 51.813 21.972 C 51.757 22.855 51.16 23.386 50.333 23.369 C 49.54 23.352 48.975 22.822 48.892 21.983 C 48.864 21.699 48.886 21.403 48.886 21.112 C 48.886 21.112 48.886 21.112 48.886 21.112 Z" style="fill: rgb(204, 204, 204);"/>
  <path d="M 50.344 24.173 C 51.221 24.162 52.003 24.939 52.009 25.832 C 52.015 26.72 51.226 27.508 50.35 27.496 C 49.489 27.486 48.741 26.737 48.724 25.872 C 48.702 24.989 49.467 24.19 50.344 24.173 Z" style="fill: rgb(204, 204, 204);"/>
  <path d="M 78.157 34.022 L 78.307 33.21 L 76.863 33.21 L 77.676 28.608 L 84.563 28.608 L 82.788 38.653 C 80.342 39.556 77.886 40.007 75.42 40.007 C 72.953 40.007 71.174 39.516 70.081 38.533 C 68.989 37.55 68.442 36.036 68.442 33.992 C 68.442 33.13 68.582 31.856 68.863 30.172 C 69.465 26.684 70.527 24.167 72.051 22.623 C 73.575 21.079 76.102 20.307 79.63 20.307 C 80.373 20.307 81.32 20.387 82.472 20.547 C 83.626 20.708 84.473 20.889 85.014 21.089 L 83.36 25.69 C 81.856 25.41 80.478 25.27 79.224 25.27 C 77.971 25.27 77.074 25.37 76.533 25.57 C 75.991 25.771 75.67 26.172 75.57 26.773 L 74.096 35.285 L 75.991 35.285 C 76.673 35.285 77.18 35.209 77.51 35.06 C 77.841 34.909 78.056 34.564 78.157 34.022 Z M 89.825 39.556 L 83.81 39.556 L 91.72 20.758 L 100.562 20.758 L 101.886 39.556 L 95.841 39.556 L 95.721 36.578 L 90.998 36.578 Z M 94.969 26.533 L 92.863 31.796 L 95.269 31.796 L 95.269 26.533 Z M 109.284 39.556 L 103.33 39.556 L 107.721 20.758 L 115.179 20.758 L 115.721 30.322 L 115.932 30.322 L 119.841 20.758 L 127.301 20.758 L 125.075 39.556 L 119.09 39.556 L 120.353 30.442 L 120.142 30.442 L 116.383 39.556 L 112.021 39.556 L 111.39 30.442 L 111.239 30.442 Z M 140.925 32.458 L 135.21 32.458 L 134.819 34.744 L 141.827 34.744 L 140.985 39.556 L 128.263 39.556 L 131.572 20.758 L 144.143 20.758 L 142.579 25.57 L 136.413 25.57 L 135.992 28.096 L 141.707 28.096 Z M 143.662 39.225 L 145.346 34.262 C 147.03 34.724 148.575 34.955 149.978 34.955 C 151.381 34.955 152.515 34.894 153.376 34.773 L 153.618 33.27 L 151.121 33.029 C 149.216 32.849 147.868 32.418 147.076 31.736 C 146.283 31.055 145.887 30.092 145.887 28.849 C 145.887 28.307 145.947 27.706 146.068 27.044 C 146.529 24.478 147.366 22.713 148.579 21.75 C 149.792 20.788 151.672 20.307 154.219 20.307 C 156.765 20.307 159.01 20.558 160.956 21.059 L 159.392 25.871 C 157.647 25.57 156.244 25.42 155.181 25.42 C 154.118 25.42 153.216 25.47 152.475 25.57 L 152.233 27.044 L 154.249 27.255 C 156.293 27.475 157.747 27.962 158.61 28.714 C 159.472 29.465 159.903 30.473 159.903 31.736 C 159.903 33.019 159.622 34.342 159.061 35.706 C 158.781 36.408 158.474 36.994 158.143 37.466 C 157.813 37.937 157.392 38.337 156.88 38.669 C 156.369 39 155.903 39.25 155.482 39.42 C 155.061 39.591 154.53 39.716 153.887 39.796 C 152.946 39.936 151.793 40.007 150.429 40.007 C 147.943 40.007 145.687 39.747 143.662 39.225 Z" style="white-space: pre; fill: rgb(255, 255, 255);"/>
  <path d="M 64.568 13.583 C 64.568 12.603 64.708 11.308 64.988 9.698 C 65.268 8.088 65.638 6.698 66.098 5.528 C 66.558 4.358 67.178 3.343 67.958 2.483 C 69.458 0.823 71.828 -0.007 75.068 -0.007 C 77.588 -0.007 79.393 0.498 80.483 1.508 C 81.573 2.518 82.118 4.023 82.118 6.023 C 82.118 8.023 81.828 9.938 81.248 11.768 C 80.668 13.598 79.968 15.003 79.148 15.983 L 81.008 17.243 L 78.908 20.693 L 73.628 19.643 L 73.838 18.503 L 71.288 19.193 C 68.868 19.193 67.143 18.708 66.113 17.738 C 65.083 16.768 64.568 15.383 64.568 13.583 Z M 70.238 14.513 L 72.608 14.513 C 73.388 14.513 73.968 14.418 74.348 14.228 C 74.728 14.038 74.978 13.603 75.098 12.923 L 76.478 5.123 L 74.078 5.123 C 73.318 5.123 72.748 5.218 72.368 5.408 C 71.988 5.598 71.738 6.033 71.618 6.713 Z M 91.627 0.443 L 89.137 14.513 L 91.177 14.513 C 91.877 14.513 92.377 14.418 92.677 14.228 C 92.977 14.038 93.187 13.603 93.307 12.923 L 95.527 0.443 L 101.227 0.443 L 99.367 10.973 C 99.067 12.673 98.722 14.043 98.332 15.083 C 97.942 16.123 97.397 17.003 96.697 17.723 C 95.997 18.443 95.132 18.943 94.102 19.223 C 93.072 19.503 91.767 19.643 90.187 19.643 C 87.767 19.643 86.072 19.278 85.102 18.548 C 84.132 17.818 83.647 16.563 83.647 14.783 C 83.647 13.803 83.787 12.533 84.067 10.973 L 85.927 0.443 Z M 101.017 19.193 L 104.317 0.443 L 110.017 0.443 L 106.717 19.193 Z M 123.877 19.193 L 108.517 19.193 L 109.177 15.443 L 118.207 5.423 L 118.147 5.243 L 112.177 5.243 L 112.507 0.443 L 127.057 0.443 L 126.397 4.193 L 117.427 14.213 L 117.457 14.393 L 124.717 14.393 Z" style="white-space: pre; fill: rgb(255, 255, 255);"/>
</svg>

<svg xmlns="http://www.w3.org/2000/svg" viewBox="0 0 200 40"><path d="M60.36 25.7V10.74H40.94V30.1h8.87l.3 1.86-.55.02h-8.44c-1.43 0-2.08-.65-2.08-2.1V10.94c0-1.44.65-2.1 2.08-2.1h19.03q2.06.01 2.06 2.06.02 6.2 0 12.4c0 .3-.17.63-.37.86-.4.5-.88.93-1.48 1.55" style="fill:#ccc"/><path d="M57.23 31.18c1.13-1.25 2.21-2.53 3.39-3.71q2.33-2.34 4.8-4.56a8 8 0 0 1 1.85-1.18c.37-.18.87-.24 1.29-.2.73.1 1.02.8.61 1.42q-.33.5-.8.9a39 39 0 0 0-9.8 14.5l-.05.12c-.24.23-.47.6-.74.64-.22.03-.58-.28-.74-.52-.56-.86-1-1.81-1.6-2.62q-1.76-2.27-3.66-4.43c-.32-.38-.6-.7-.4-1.23.22-.5.63-.81 1.16-.75q1.06.12 2.07.47c.87.3 1.7.74 2.62 1.15m-8.34-10.07v-.8q.02-.88.9-1.09.46-.08.91-.2c.6-.18 1.04-.51 1.1-1.2q.08-.83-.63-1.22a1.5 1.5 0 0 0-1.7.1c-.3.22-.52.54-.78.83q-.77.84-1.67.5c-.6-.25-.96-.83-.85-1.58.06-.43.2-.88.43-1.24 1.7-2.62 6.4-2.46 7.96.25a3.96 3.96 0 0 1-2.28 5.92c-.32.1-.44.24-.47.6-.05.88-.65 1.4-1.48 1.39-.79-.02-1.35-.55-1.44-1.39-.03-.28 0-.58 0-.87m1.45 3.06a1.7 1.7 0 0 1 1.67 1.66 1.7 1.7 0 0 1-1.66 1.67 1.7 1.7 0 0 1-1.63-1.63 1.7 1.7 0 0 1 1.62-1.7" style="fill:#ccc"/><path d="m78.16 34.02.15-.81h-1.45l.82-4.6h6.88L82.8 38.65q-3.67 1.35-7.37 1.36-3.7 0-5.34-1.48-1.64-1.47-1.64-4.54 0-1.29.42-3.82.9-5.23 3.2-7.55 2.28-2.31 7.57-2.31 1.11 0 2.84.24t2.54.54l-1.65 4.6q-2.25-.42-4.14-.42t-2.69.3-.96 1.2l-1.47 8.51H76q1.01 0 1.51-.22.5-.23.65-1.04m11.67 5.54H83.8l7.91-18.8h8.84l1.33 18.8h-6.05l-.12-2.98H91Zm5.14-13.03-2.1 5.27h2.4v-5.27Zm14.31 13.03h-5.95l4.4-18.8h7.45l.54 9.56h.21l3.91-9.56h7.46l-2.22 18.8h-5.99l1.26-9.12h-.2l-3.77 9.12h-4.36l-.63-9.12h-.15Zm31.65-7.1h-5.72l-.4 2.28h7.02l-.84 4.82h-12.73l3.31-18.8h12.57l-1.56 4.81h-6.17L136 28.1h5.72Zm2.73 6.77 1.69-4.97q2.52.7 4.63.7t3.4-.19l.24-1.5-2.5-.24q-2.85-.27-4.04-1.3a3.6 3.6 0 0 1-1.2-2.88q0-.81.19-1.8.7-3.86 2.5-5.3 1.83-1.44 5.65-1.44 3.81 0 6.74.75l-1.57 4.81a26 26 0 0 0-4.2-.45q-1.6 0-2.72.15l-.24 1.47 2.02.21q3.06.34 4.36 1.46a3.8 3.8 0 0 1 1.3 3.03q0 1.92-.85 3.97-.42 1.05-.92 1.76-.5.7-1.26 1.2-.77.5-1.4.75-.63.26-1.6.38-1.4.2-3.45.2-3.73 0-6.77-.77" style="white-space:pre;fill:#fff"/><path d="M64.57 13.58q0-1.47.42-3.88t1.1-4.17a10 10 0 0 1 1.87-3.05Q70.2 0 75.06 0q3.79 0 5.42 1.52 1.65 1.5 1.64 4.51 0 3-.87 5.75a12 12 0 0 1-2.1 4.21L81 17.24l-2.1 3.45-5.28-1.05.2-1.14-2.54.7q-3.63-.01-5.18-1.46-1.54-1.46-1.54-4.16m5.67.93h2.37q1.17 0 1.74-.28.57-.3.75-1.3l1.38-7.8h-2.4q-1.14 0-1.71.28t-.75 1.3ZM91.63.44l-2.5 14.07h2.05q1.05 0 1.5-.28.44-.3.63-1.3L95.53.43h5.7l-1.86 10.53q-.45 2.55-1.04 4.11a8 8 0 0 1-1.63 2.64 5.6 5.6 0 0 1-2.6 1.5q-1.54.42-3.91.42-3.63 0-5.09-1.1-1.45-1.09-1.45-3.76 0-1.47.42-3.8L85.93.43Zm9.39 18.75 3.3-18.75h5.7l-3.3 18.75Zm22.86 0h-15.36l.66-3.75 9.03-10.02-.06-.18h-5.97l.33-4.8h14.55l-.66 3.75-8.97 10.02.03.18h7.26Z" style="white-space:pre;fill:#fff"/></svg>
